flaticon/education/earth-globe.svg

<svg xmlns="http://www.w3.org/2000/svg" width="32" height="32" viewBox="0 0 24 24">
    <path d="M 20.226562 12.320312 C 20.027344 12.199219 19.785156 12.238281 19.667969 12.441406 C 19.464844 12.757812 19.242188 13.03125 19 13.292969 L 18.085938 12.378906 C 19.054688 11.128906 19.585938 9.605469 19.585938 8 C 19.585938 6.078125 18.828125 4.28125 17.507812 2.878906 C 14.878906 0.289062 10.78125 0.0976562 7.964844 2.296875 L 7.101562 1.4375 C 7.386719 1.164062 7.6875 0.929688 7.984375 0.71875 C 8.1875 0.601562 8.226562 0.359375 8.105469 0.160156 C 7.984375 0 7.746094 -0.0390625 7.585938 0.0390625 C 7.234375 0.296875 6.882812 0.578125 6.550781 0.886719 L 5.984375 0.320312 C 5.828125 0.160156 5.585938 0.160156 5.425781 0.320312 C 5.265625 0.480469 5.265625 0.71875 5.425781 0.878906 L 6 1.441406 C 4.433594 3.164062 3.585938 5.386719 3.585938 7.71875 C 3.585938 10.160156 4.546875 12.441406 6.265625 14.160156 C 7.753906 15.613281 9.625 16.46875 11.5625 16.71875 L 11.210938 21.601562 L 9.585938 21.601562 C 8.464844 21.601562 7.585938 22.480469 7.585938 23.601562 C 7.585938 23.839844 7.746094 24 7.984375 24 L 17.585938 24 C 17.828125 24 17.984375 23.839844 17.984375 23.601562 C 17.984375 22.480469 17.105469 21.601562 15.984375 21.601562 L 14.359375 21.601562 L 14.011719 16.71875 C 15.832031 16.484375 17.585938 15.714844 19 14.414062 L 19.585938 15 C 19.667969 15.078125 19.746094 15.121094 19.867188 15.121094 C 19.945312 15.121094 20.066406 15.078125 20.144531 15 C 20.304688 14.839844 20.304688 14.601562 20.144531 14.441406 L 19.570312 13.863281 C 19.851562 13.570312 20.109375 13.234375 20.347656 12.878906 C 20.464844 12.679688 20.425781 12.441406 20.226562 12.320312 Z M 8.585938 10 C 8.625 10 8.625 10 8.707031 10 C 9.585938 10.199219 9.585938 11.121094 9.585938 11.199219 L 9.585938 11.238281 C 9.667969 11.761719 10.144531 12.761719 11.585938 12.800781 C 12.492188 12.800781 13.164062 13.765625 13.449219 14.292969 C 11.679688 14.585938 9.804688 14.140625 8.347656 12.957031 C 8.386719 12.878906 8.386719 12.835938 8.386719 12.71875 C 8.226562 11.640625 8.265625 10.28125 8.585938 10 Z M 14.308594 14.089844 C 14.039062 13.585938 13.097656 12.035156 11.625 12 C 10.625 11.960938 10.464844 11.320312 10.425781 11.160156 C 10.425781 10.601562 10.105469 9.480469 8.90625 9.199219 C 8.585938 9.121094 8.304688 9.199219 8.066406 9.398438 C 7.496094 9.9375 7.476562 11.296875 7.535156 12.160156 C 6.699219 11.1875 6.207031 10.011719 6.054688 8.800781 C 6.761719 8.792969 7.269531 8.59375 7.625 8.199219 C 8.144531 7.558594 7.984375 6.761719 7.984375 6.761719 C 7.832031 4.835938 8.34375 3.394531 8.632812 2.824219 C 9.054688 2.515625 9.511719 2.265625 9.984375 2.070312 C 9.75 2.617188 9.523438 3.101562 9.386719 3.398438 C 9.105469 3.960938 8.984375 4.199219 9.304688 4.398438 C 9.347656 4.441406 9.425781 4.480469 9.507812 4.480469 C 9.625 4.480469 9.746094 4.441406 9.90625 4.238281 C 10.144531 3.960938 11.386719 3.679688 12.425781 3.601562 C 12.546875 3.601562 12.667969 3.519531 12.707031 3.441406 C 12.785156 3.320312 12.785156 3.199219 12.785156 3.039062 C 12.746094 2.921875 12.746094 2.800781 12.828125 2.679688 C 13.105469 2.28125 13.984375 2.039062 14.464844 1.960938 C 14.472656 1.960938 14.480469 1.960938 14.488281 1.960938 C 14.929688 2.113281 15.351562 2.316406 15.753906 2.566406 C 15.992188 3.191406 16.015625 3.734375 15.867188 3.921875 C 15.746094 4.039062 15.507812 4.039062 15.304688 4 C 15.027344 3.800781 14.226562 3.320312 13.625 3.679688 C 13.226562 3.921875 13.066406 4.398438 13.144531 5.121094 C 12.945312 5.558594 12.464844 6.398438 11.984375 6.359375 C 11.90625 6.359375 11.867188 6.398438 11.824219 6.398438 C 11.746094 6.398438 11.304688 6.558594 11.1875 7.082031 C 11.066406 7.640625 11.347656 8.28125 12.066406 9.039062 C 12.785156 9.800781 13.144531 9.878906 13.546875 9.800781 C 13.585938 9.800781 13.585938 9.800781 13.585938 9.800781 C 13.667969 9.878906 13.867188 10.078125 14.425781 10.960938 C 14.507812 11.160156 14.746094 11.761719 15.265625 11.800781 C 15.304688 11.800781 15.304688 11.800781 15.347656 11.800781 C 15.867188 11.800781 16.226562 11.199219 16.347656 11 C 16.464844 10.761719 16.585938 10.519531 16.707031 10.28125 C 17.222656 9.246094 17.535156 8.589844 18.742188 8.742188 C 18.578125 10.179688 17.929688 11.496094 16.90625 12.519531 C 16.15625 13.269531 15.261719 13.792969 14.308594 14.089844 Z M 7.386719 4.039062 C 7.1875 4.800781 7.066406 5.761719 7.1875 6.878906 C 7.1875 6.878906 7.265625 7.359375 6.984375 7.679688 C 6.789062 7.878906 6.476562 7.996094 6.007812 8 C 6.007812 6.875 6.296875 5.746094 6.882812 4.75 C 7.035156 4.503906 7.199219 4.265625 7.386719 4.039062 Z M 12.339844 1.601562 C 12.539062 1.601562 12.742188 1.617188 12.945312 1.640625 C 12.625 1.800781 12.347656 2 12.144531 2.28125 C 12.027344 2.441406 11.945312 2.640625 11.945312 2.839844 C 11.507812 2.878906 10.90625 2.960938 10.386719 3.121094 C 10.585938 2.71875 10.785156 2.238281 10.984375 1.761719 C 11.042969 1.746094 11.097656 1.734375 11.152344 1.722656 C 11.546875 1.644531 11.941406 1.601562 12.339844 1.601562 Z M 14.027344 4.359375 C 14.144531 4.28125 14.585938 4.441406 14.90625 4.679688 C 14.945312 4.71875 14.984375 4.761719 15.066406 4.761719 C 15.667969 4.878906 16.144531 4.761719 16.425781 4.398438 C 16.667969 4.121094 16.746094 3.71875 16.707031 3.320312 C 16.785156 3.398438 16.828125 3.441406 16.867188 3.480469 C 18.066406 4.640625 18.746094 6.238281 18.746094 7.921875 C 17.027344 7.71875 16.464844 8.878906 15.945312 9.921875 C 15.828125 10.160156 15.707031 10.359375 15.585938 10.601562 C 15.464844 10.878906 15.347656 10.960938 15.304688 11 C 15.265625 10.921875 15.1875 10.800781 15.144531 10.679688 C 15.144531 10.640625 15.105469 10.640625 15.105469 10.601562 C 14.386719 9.398438 14.027344 9.039062 13.585938 9.039062 C 13.546875 9.039062 13.464844 9.039062 13.347656 9 C 13.265625 9 13.144531 9.039062 12.625 8.480469 C 11.90625 7.71875 11.945312 7.359375 11.945312 7.28125 C 11.945312 7.199219 11.984375 7.199219 12.027344 7.160156 C 13.144531 7.121094 13.828125 5.519531 13.90625 5.320312 C 13.945312 5.238281 13.945312 5.199219 13.945312 5.121094 C 13.90625 4.558594 13.984375 4.398438 14.027344 4.359375 Z M 16.027344 22.398438 C 16.546875 22.398438 16.984375 22.71875 17.144531 23.199219 L 8.464844 23.199219 C 8.625 22.71875 9.066406 22.398438 9.585938 22.398438 Z M 13.226562 16.800781 L 13.585938 21.601562 L 12.027344 21.601562 L 12.386719 16.800781 Z M 6.828125 13.601562 C 5.265625 12.039062 4.386719 9.960938 4.347656 7.71875 C 4.347656 5.605469 5.128906 3.5625 6.5625 1.996094 L 7.382812 2.804688 C 7.359375 2.828125 7.332031 2.855469 7.304688 2.878906 C 6.703125 3.492188 6.230469 4.183594 5.886719 4.917969 C 5.886719 4.921875 5.886719 4.921875 5.886719 4.921875 C 5.878906 4.9375 5.871094 4.953125 5.863281 4.96875 C 5.359375 6.035156 5.117188 7.222656 5.1875 8.441406 C 5.1875 8.496094 5.203125 8.550781 5.230469 8.601562 C 5.367188 10.238281 6.058594 11.832031 7.304688 13.078125 C 7.382812 13.15625 7.460938 13.230469 7.539062 13.300781 C 7.554688 13.324219 7.570312 13.34375 7.585938 13.359375 C 8.859375 14.519531 10.507812 15.15625 12.203125 15.199219 C 12.207031 15.199219 12.210938 15.199219 12.214844 15.199219 C 12.273438 15.199219 12.328125 15.199219 12.386719 15.199219 C 12.453125 15.199219 12.523438 15.199219 12.589844 15.195312 C 12.609375 15.195312 12.628906 15.195312 12.652344 15.195312 C 12.695312 15.191406 12.738281 15.191406 12.78125 15.1875 C 12.820312 15.1875 12.863281 15.183594 12.902344 15.179688 C 12.902344 15.179688 12.902344 15.179688 12.90625 15.179688 C 13.320312 15.152344 13.734375 15.097656 14.1875 15.039062 C 14.246094 15.007812 14.332031 14.976562 14.386719 14.910156 C 15.515625 14.582031 16.578125 13.96875 17.464844 13.078125 C 17.5 13.046875 17.53125 13.011719 17.566406 12.980469 L 18.4375 13.851562 C 15.140625 16.796875 10.019531 16.714844 6.828125 13.601562 Z M 6.828125 13.601562"/>
</svg>

<svg xmlns="http://www.w3.org/2000/svg" width="32" height="32" viewBox="0 0 24 24">
    <path d="M20.227 12.32c-.2-.12-.442-.082-.559.121-.203.317-.426.59-.668.852l-.914-.914A7.116 7.116 0 0 0 19.586 8c0-1.922-.758-3.719-2.078-5.121-2.63-2.59-6.727-2.781-9.543-.582l-.863-.86A7.74 7.74 0 0 1 7.984.72c.204-.117.243-.36.121-.559a.439.439 0 0 0-.52-.12c-.35.257-.702.538-1.034.847L5.984.32a.385.385 0 0 0-.558 0 .385.385 0 0 0 0 .559L6 1.44A9.286 9.286 0 0 0 3.586 7.72c0 2.441.96 4.722 2.68 6.441a9.258 9.258 0 0 0 5.296 2.559l-.351 4.883H9.586c-1.121 0-2 .878-2 2 0 .238.16.398.398.398h9.602c.242 0 .398-.16.398-.398 0-1.122-.879-2-2-2H14.36l-.347-4.883A9.053 9.053 0 0 0 19 14.414l.586.586c.082.078.16.121.281.121.078 0 .2-.043.278-.121a.385.385 0 0 0 0-.559l-.575-.578a7.25 7.25 0 0 0 .778-.984c.117-.2.078-.438-.121-.559zM8.586 10h.121c.879.2.879 1.121.879 1.2v.038c.082.524.559 1.524 2 1.563.906 0 1.578.965 1.863 1.492a6.431 6.431 0 0 1-5.101-1.336c.039-.078.039-.121.039-.238-.16-1.078-.121-2.438.199-2.719zm5.723 4.09c-.27-.504-1.211-2.055-2.684-2.09-1-.04-1.16-.68-1.2-.84 0-.558-.32-1.68-1.519-1.96a.914.914 0 0 0-.84.198c-.57.54-.59 1.899-.53 2.762A6.36 6.36 0 0 1 6.054 8.8c.707-.007 1.215-.206 1.57-.6.52-.641.36-1.438.36-1.438-.153-1.926.359-3.367.648-3.938a6.479 6.479 0 0 1 1.351-.754c-.234.547-.46 1.032-.597 1.328-.282.563-.403.801-.082 1a.303.303 0 0 0 .203.082c.117 0 .238-.039.398-.242.239-.277 1.48-.558 2.52-.636a.34.34 0 0 0 .281-.16c.078-.122.078-.243.078-.403a.387.387 0 0 1 .043-.36c.277-.398 1.156-.64 1.637-.718h.023c.442.152.864.355 1.266.605.238.625.262 1.168.113 1.356-.12.117-.36.117-.562.078-.278-.2-1.078-.68-1.68-.32-.398.242-.559.718-.48 1.441-.2.438-.68 1.277-1.16 1.238-.079 0-.118.04-.16.04-.079 0-.52.16-.637.683-.122.559.16 1.2.878 1.957.72.762 1.079.84 1.48.762h.04c.082.078.281.277.84 1.16.082.2.32.8.84.84h.082c.52 0 .879-.602 1-.801.117-.238.238-.48.359-.719.516-1.035.828-1.691 2.035-1.539a6.343 6.343 0 0 1-1.836 3.778 6.323 6.323 0 0 1-2.597 1.57zM7.387 4.04a7.85 7.85 0 0 0-.2 2.839s.079.48-.203.8c-.195.2-.507.317-.976.321 0-1.125.289-2.254.875-3.25a6.34 6.34 0 0 1 .504-.71zm4.953-2.438c.2 0 .402.015.605.039-.32.16-.597.359-.8.64-.118.16-.2.36-.2.559-.437.039-1.039.12-1.558.281.199-.402.398-.883.597-1.36a6.094 6.094 0 0 1 1.355-.16zm1.687 2.757c.118-.078.559.082.88.32.038.04.077.083.16.083.601.117 1.078 0 1.359-.364.242-.277.32-.68.281-1.078l.16.16a6.17 6.17 0 0 1 1.88 4.442c-1.72-.203-2.282.957-2.802 2-.117.238-.238.437-.36.68-.12.277-.237.359-.28.398-.04-.078-.117-.2-.16-.32 0-.04-.04-.04-.04-.078-.718-1.204-1.078-1.563-1.52-1.563-.038 0-.12 0-.237-.039-.082 0-.203.04-.723-.52-.719-.761-.68-1.12-.68-1.199 0-.082.04-.082.082-.12 1.118-.04 1.801-1.641 1.88-1.84.038-.083.038-.122.038-.2-.039-.562.04-.723.082-.762zm2 18.04c.52 0 .957.32 1.118.8h-8.68c.16-.48.601-.8 1.12-.8zm-2.8-5.598l.359 4.8h-1.559l.36-4.8zm-6.399-3.2a8.459 8.459 0 0 1-2.48-5.882c0-2.114.78-4.157 2.215-5.723l.82.809c-.024.023-.051.05-.078.074a7.374 7.374 0 0 0-1.418 2.039v.004l-.024.047a7.15 7.15 0 0 0-.676 3.472c0 .055.016.11.043.16a7.148 7.148 0 0 0 2.31 4.7.384.384 0 0 0 .046.058 7.12 7.12 0 0 0 4.617 1.84h.184c.066 0 .136 0 .203-.004h.062c.043-.004.086-.004.13-.008.038 0 .081-.003.12-.007h.004c.414-.028.828-.082 1.281-.14.06-.032.145-.063.2-.13a7.156 7.156 0 0 0 3.078-1.832c.035-.031.066-.066.101-.098l.872.872c-3.297 2.945-8.418 2.863-11.61-.25zm0 0"/>
</svg>
